X: 25
T: Rolling Waves, The
Z: UPipes & harp
S: https://thesession.org/tunes/88#setting50075
R: jig
M: 6/8
L: 1/8
K: Dmaj
{A}FE{A}F ~D3 | {A}D2 d .cAG | {A}FE{A}F ~D3 | A{c}AF {A}GFE |
{A}FE{A}F ~D3 | {A}D2 d .cAG | E ~F2 ~G3 | (4.A.c.A.F {A}GFE |
{A}FEF ~D3 |~D2 d .cAG | E ~F2 ~D3 | (3ABA F {A}GFE |
{A}FE{A}F ~D3 | {A}D2 d .cAG | (4FGAF GBG | A{B}AF {A}GFE ||
{A} D2 d cAd | cAd cAG | ~F2 d cAG | ~A2 F {A}GFE |
~D2 d .cAc|ded cAG | (4FGAF GBG | AAF GFE |
D2 d .cAd | cAd {d}cAG|~F2 d cAG|FAF {A}GFE|
{A}D2 d cde|(4.g.f.e.d {d}cAG|E ~F2 ~G3|~A2 F {A}GFE||

